X: 31233
T: COTILLION No. 20. BEETHOVEN SETT tune 6
C:
%R: reel
B: Elias Howe "The Musician's Companion" Part 3 1844 p.123 #3
S: http://imslp.org/wiki/The_Musician's_Companion_(Howe,_Elias)
Z: 2015 John Chambers <jc:trillian.mit.edu>
M: 2/4
L: 1/16
K: C
% - - - - - - - - - - - - - - - - - - - - - - - - - - - - -
C3C E2G2 | cded cBAG | ABAG A2a2 | gecd edd2 |\
C3C E2G2 | cded cBAG | ABAG ABcd | efdf (ec)c2 H:|
g3a gfeg | fedf edcB | ABAG A2a2 | gecd (ed)d2 |\
g3a gfeg | fedf edcB | ABAG ABcA | GFED EC"^D.C."C2 :|
% - - - - - - - - - - Dance description - - - - - - - - - -
%%begintext align
%% Grand right and left,
%% all balance,
%% grand chain,
%% all promenade.
%%endtext
% - - - - - - - - - - - - - - - - - - - - - - - - - - - - -
%%sep 1 1 300
